X:1
T:Title
%%score { ( 1 4 ) | ( 2 3 ) }
L:1/8
Q:1/4=123
M:6/4
K:Db
V:1 treble nm="Grand Piano"
V:4 treble 
V:2 bass 
V:3 bass 
V:1
 [FA]2 [EG]2 F2 F4 B2 | A4 G2 F4 F2 | [CE]4 [CE]2 [CA]4 [CG]2 | [DF]6- [DF]4 [EG]2 | %4
w: H.~L.~Gilmour * * * *||||
 [FA]4 [Fd]2 [_Fc]4 [FB]2 | [B,_F=G]4 [B,FG]2 [A,=FA]4 [A,E_G]2 | [A,DF]4 [DB]2 [A,CE]4 [A,C_F]2 | %7
w: |||
 [A,DF]12 | [A,DF]2 [A,EG]2 [A,FA]2 [DGB]4 [DFA]2 | [DAd]4 [DAc]2 B6 | B2 c2 d2 [Ge]4 [Gd]2 | %11
w: ||||
 c6- c4 c2 | [Fd]2 [Ac]2 [GB]2 [FA]4 [FA]2 | .[Gc]4 [A,EG]2 [A,DF]4 [A,CG]2 | %14
w: |||
[M:7/4] [A,DA]4 [DFA]2 [EGc]6 [Fd]2 |[M:6/4] [Fd]12 |[M:3/4] [FA][_F=G] [FB]2 [=FA]2 | %17
w: |||
 [FA][Fd] [Fd][Ec] [Ec]2 | [CEG][DGB] [DGB][DFA] [DFA]2 | [A,DF][DFA] [EA]2- [B,E-A]2 | [EG]2 F4 | %21
w: ||||
 FF B4 | (3[Bd][Ac][GB] [GB]2 [FA]2 | AA e4 | (3cBc [Fd]2 [FA]2- | [FA] z [GB]2 [GB]2 | %26
w: |||||
 c2 [Fd]2 [Fd]2- |[M:2/4] [Fd]4- | [Fd]2 z2 |] %29
w: |||
V:2
 [D,A,]2 [D,A,]2 [D,A,D]2 [D,A,D]4 [D,G,D]2 | [D,F,D]4 [D,B,D]2 [D,A,D]4 [D,A,D]2 | %2
 [A,,A,]4 [A,,A,]2 [A,,E,]4 [A,,A,]2 | [D,A,]6- [D,A,]4 [D,A,]2 | [D,D]4 [D,A,]2 [D,=G,]4 [D,G,]2 | %5
 D,4 D,2 D,4 D,2 | D,4 G,,2 A,,4 A,,2 | D,12 | D,2 D,2 D,2 D,4 D,2 | F,4 F,2 [G,DG]6 | %10
 [G,DG]2 [G,CG]2 [G,B,G]2 [E,B,]4 [E,E]2 | [A,EA]6- [A,EA]4 [A,G]2 | %12
 [D,A,]4 [D,D]2 [D,D]4 [D,A,]2 | z2[K:treble] B2[K:bass] A,,2 D,4 E,2 |[M:7/4] F,4 D,2 A,6 A,2 | %15
[M:6/4] [D,A,]12 |[M:3/4] [D,A,][D,B,] [D,=G,]2 [D,A,]2 | [D,A,][D,A,] A,A, A,2 | A,,A,, D,D, D,2 | %19
 D,D, A,,2 B,,2 | [C,A,]2 [D,A,D]4 | [A,D][A,D] [G,DG]4 | (3[G,D][G,D][G,D] [D,D]2 [D,D]2 | %23
 [A,DF][A,DF] [A,CG]4 | (3[A,EG][A,EG][A,EG][K:bass] [D,D]2 [D,D]2- | [D,D] z [G,D]2 [E,E]2 | %26
 [A,G]2 [D,A,]2 [D,A,]2- |[M:2/4] [D,A,]4- | [D,A,]2 z2 |] %29
V:3
 x12 | x12 | x12 | x12 | x12 | x12 | x12 | x12 | x12 | x12 | x12 | x12 | x12 | %13
 .[A,,A,]6[K:treble][K:bass] z6 |[M:7/4] x14 |[M:6/4] x12 |[M:3/4] x6 | x6 | x6 | x6 | x6 | x6 | %22
 x6 | x6 | x2[K:bass] x4 | x6 | x6 |[M:2/4] x4 | x4 |] %29
V:4
 x12 | x12 | x12 | x12 | x12 | x12 | x12 | x12 | x12 | x12 | x12 | x12 | x12 | x12 |[M:7/4] x14 | %15
[M:6/4] x12 |[M:3/4] x6 | x6 | x6 | z2 C2 z2 | x6 | x6 | x6 | x6 | x6 | x6 | x6 |[M:2/4] x4 | x4 |] %29

